actions/22x22-dark/dynamic-amarok.svg

<svg viewBox="0 0 22 22" xmlns="http://www.w3.org/2000/svg"><path d="m11 3c-4.432 0-8 3.568-8 8s3.568 8 8 8 8-3.568 8-8-3.568-8-8-8zm3 4 2 1.5-2 1.5v-1h-1.759766c.000946.0079-.835943 1.045972-1.611328 2.013672l1.611328 1.986328h1.759766v-1l2 1.5-2 1.5v-1h-2.238281s-.892947-1.118872-1.761719-2.201172c-.868603 1.0823-1.7617188 2.201172-1.7617188 2.201172h-2.2382812v-1h1.7597656l1.6113282-1.986328c-.7755362-.9677-1.6122737-2.003672-1.6113282-2.013672h-1.7597656v-1h2.1855469l1.8144531 2.238281 1.814453-2.238281h2.185547z" fill="#f2f2f2"/></svg>

<svg xmlns="http://www.w3.org/2000/svg" viewBox="0 0 22 22">
  <defs id="defs3051">
    <style type="text/css" id="current-color-scheme">
      .ColorScheme-Text {
        color:#f2f2f2
      }
      </style>
  </defs>
 <path 
     style="fill:currentColor;fill-opacity:1;stroke:none"      
	 class="ColorScheme-Text"
        d="M 11 3 C 6.568 3 3 6.568 3 11 C 3 15.432 6.568 19 11 19 C 15.432 19 19 15.432 19 11 C 19 6.568 15.432 3 11 3 z M 14 7 L 16 8.5 L 14 10 L 14 9 L 12.240234 9 C 12.24118 9.0079 11.404291 10.045972 10.628906 11.013672 L 12.240234 13 L 14 13 L 14 12 L 16 13.5 L 14 15 L 14 14 L 11.761719 14 C 11.761719 14 10.868772 12.881128 10 11.798828 C 9.131397 12.881128 8.2382812 14 8.2382812 14 L 6 14 L 6 13 L 7.7597656 13 L 9.3710938 11.013672 C 8.5955576 10.045972 7.7588201 9.01 7.7597656 9 L 6 9 L 6 8 L 8.1855469 8 L 10 10.238281 L 11.814453 8 L 14 8 L 14 7 z "
     />
</svg>
